X:52
T:The Humours of Ballyconnell
M:C
L:1/8
K:D
defe dBAF|BFAF E2 FA|defe dBAF|BFAF D4 :|
(3FED AD (3FED AD|(3GFE BE (3GFE BG|\
(3FED AD (3FED FA|BFAF D4 :|
a af a2 af|gece g2 fg|a2 af abag|fdec d4 :|
